X:6662
T:Hag at the Churn
M:6/8
L:1/8
K:D Mixolydian
A2G ADD|A2G Adc|A2G ADD|EFG EFG:|!
AdB c3|Add efg|[1 AdB c3|EDE GED:|[2 fge dcA|GDF GED|]!
